X:105
T:Learned from Tom McCann in Philly
S:Learned from Tom McCann at Paddy Rooney's & Jack McShea's sessions.
R: polka
M: 2/4
L: 1/8
K: Ador
A>B cd | eA A2 | BG G2 | BG GB |
A>B cd | eA A2 | BG dB |[1 A2 A2 :|[2 A2 AA/B/ |]
|: ce Bd | ce ed/c/ | Bd Gd | Bd dc/B/ |
ce Bd | ce ed/c/ | BG dB |[1 A2 AA/B/ :|[2 A2 A2 |]

